components/Icon/svg/github.svg

<?xml version="1.0" encoding="UTF-8"?>
<svg width="24px" height="24px" viewBox="0 0 24 24" version="1.1" xmlns="http://www.w3.org/2000/svg" xmlns:xlink="http://www.w3.org/1999/xlink" >
    <title>github-logo</title>
    <g id="Thank-you-for-Downloading" stroke="none" stroke-width="1" fill="none" fill-rule="evenodd">
        <g id="download-copy" transform="translate(-757.000000, -664.000000)" fill="#512FC9">
            <g id="github-logo" transform="translate(757.000000, 664.000000)">
                <path fill="currentColor" d="M11.9838118,0 C6.10411791,0.00846948561 1.09655305,4.27587054 0.155709531,10.0798076 C-0.78513399,15.8837447 2.61789023,21.5145389 8.19381182,23.3800068 C8.79381182,23.4900068 9.01381182,23.1200068 9.01381182,22.8000068 C9.01381182,22.4800068 9.01381182,21.8000068 9.01381182,20.8000068 C5.67381182,21.5300068 5.01381182,19.2000068 5.01381182,19.2000068 C4.7856711,18.450481 4.29128579,17.8102698 3.62381182,17.4000068 C2.53381182,16.7000068 3.70381182,16.7000068 3.70381182,16.7000068 C4.47425152,16.8108525 5.15187493,17.2675118 5.54381182,17.9400068 C5.87066746,18.5388677 6.42387001,18.9817752 7.07973045,19.1697008 C7.73559089,19.3576264 8.43940603,19.2748959 9.03381182,18.9400068 C9.09122788,18.3339278 9.36030771,17.767444 9.79381182,17.3400068 C7.13381182,17.0400068 4.32381182,16.0100068 4.32381182,11.4100068 C4.29639113,10.2032475 4.74132951,9.03349016 5.56381182,8.15000683 C5.19669757,7.11350866 5.23962658,5.97588993 5.68381182,4.97000683 C5.68381182,4.97000683 6.68381182,4.70000683 8.98381182,6.20000683 C10.9482563,5.6666735 13.0193674,5.6666735 14.9838118,6.20000683 C17.2838118,4.70000683 18.2838118,4.97000683 18.2838118,4.97000683 C18.7279971,5.97588993 18.7709261,7.11350866 18.4038118,8.15000683 C19.2129575,9.02503058 19.6535194,10.1783714 19.6338118,11.3700068 C19.6338118,15.9800068 16.8338118,16.9900068 14.1638118,17.2900068 C14.7448539,17.876904 15.0438282,18.6863223 14.9838118,19.5100068 C14.9838118,21.1200068 14.9838118,22.4100068 14.9838118,22.8000068 C14.9838118,23.1900068 15.1938118,23.5 15.8038118,23.3800068 C21.385107,21.5127319 24.7884996,15.8733591 23.8394875,10.0650076 C22.8904754,4.25665613 17.8691778,-0.00622742611 11.9838118,0 Z" id="Path"></path>
            </g>
        </g>
    </g>
</svg>

<svg xmlns="http://www.w3.org/2000/svg" width="24" height="24" viewBox="0 0 24 24">
  <path fill="currentColor" fill-rule="evenodd" d="M11.984 0a12 12 0 0 0-3.79 23.38c.6.11.82-.26.82-.58v-2c-3.34.73-4-1.6-4-1.6a3.21 3.21 0 0 0-1.39-1.8c-1.09-.7.08-.7.08-.7a2.55 2.55 0 0 1 1.84 1.24 2.55 2.55 0 0 0 3.49 1 2.59 2.59 0 0 1 .76-1.6c-2.66-.3-5.47-1.33-5.47-5.93a4.63 4.63 0 0 1 1.24-3.26 4.31 4.31 0 0 1 .12-3.18s1-.27 3.3 1.23a11.45 11.45 0 0 1 6 0c2.3-1.5 3.3-1.23 3.3-1.23a4.31 4.31 0 0 1 .12 3.18 4.63 4.63 0 0 1 1.23 3.22c0 4.61-2.8 5.62-5.47 5.92a2.86 2.86 0 0 1 .82 2.22v3.29c0 .39.21.7.82.58A12 12 0 0 0 11.984 0Z"/>
</svg>
